src/img/wm.svg

<svg xmlns="http://www.w3.org/2000/svg" version="1.1" xmlns:xlink="http://www.w3.org/1999/xlink" xmlns:svgjs="http://svgjs.com/svgjs" width="1440" height="560" preserveAspectRatio="none" viewBox="0 0 1440 560"><g mask="url(&quot;#SvgjsMask1002&quot;)" fill="none"><rect width="1440" height="560" x="0" y="0" fill="url(#SvgjsLinearGradient1003)"></rect><path d="M-33.250922660318 43.976321624878594L30.479181679359364 125.54713539324032 112.0499954477211 61.817031053562964 48.319891108043734-19.753782714798767z" fill="rgba(5, 63, 94, 1)" class="triangle-float3"></path><path d="M155.31664310188003 406.4538543391366L128.7071848383109 354.229852005255 63.67591046927302 420.2560405675495z" fill="rgba(5, 63, 94, 1)" class="triangle-float1"></path><path d="M741.08 529.11 a156.06 156.06 0 1 0 312.12 0 a156.06 156.06 0 1 0 -312.12 0z" fill="rgba(5, 63, 94, 1)" class="triangle-float3"></path><path d="M98.994,595.526C139.281,595.597,184.899,593.923,205.853,559.514C227.346,524.22,211.452,480.607,190.76,444.838C170.107,409.136,140.238,374.548,98.994,374.788C58.034,375.026,29.505,410.401,9.057,445.893C-11.347,481.31,-28.269,524.104,-7.212,559.137C13.451,593.514,58.885,595.455,98.994,595.526" fill="rgba(5, 63, 94, 1)" class="triangle-float3"></path><path d="M689.849,504.473C707.471,504.854,726.095,499.66,734.918,484.401C743.749,469.129,738.272,450.787,729.859,435.28C720.919,418.801,708.571,402.314,689.849,401.326C669.766,400.266,650.997,412.754,641.789,430.633C633.239,447.234,637.843,466.875,648.029,482.525C657.233,496.666,672.98,504.109,689.849,504.473" fill="rgba(5, 63, 94, 1)" class="triangle-float2"></path><path d="M561.8056204709292 415.4121176909831L415.9491977042609 344.2731870560393 344.8102670693171 490.1296098227076 490.6666898359854 561.2685404576514z" fill="rgba(5, 63, 94, 1)" class="triangle-float3"></path><path d="M779.965,53.699C795.97,52.727,804.385,36.151,811.536,21.8C817.691,9.447,821.619,-4.545,815.028,-16.671C808.174,-29.282,794.304,-35.658,779.965,-36.283C764.287,-36.966,747.498,-33.281,739.179,-19.975C730.449,-6.011,732.996,11.677,740.972,26.085C749.24,41.019,762.926,54.734,779.965,53.699" fill="rgba(5, 63, 94, 1)" class="triangle-float2"></path><path d="M746.73 255.74 a152.02 152.02 0 1 0 304.04 0 a152.02 152.02 0 1 0 -304.04 0z" fill="rgba(5, 63, 94, 1)" class="triangle-float2"></path><path d="M162.712950523333 102.82920984298526L139.75557535434194-27.3685345790568 32.51520610129094 125.78658501197631z" fill="rgba(5, 63, 94, 1)" class="triangle-float3"></path><path d="M737.654,78.621C755.508,79.365,771.32,67.139,779.529,51.267C787.124,36.582,784.663,19.015,775.653,5.153C767.441,-7.482,752.701,-12.335,737.654,-13.155C720.556,-14.087,700.463,-14.151,691.736,0.581C682.921,15.461,692.646,33.107,701.417,48.013C710.011,62.619,720.722,77.915,737.654,78.621" fill="rgba(5, 63, 94, 1)" class="triangle-float2"></path><path d="M875.2507720437425 84.53457344353973L964.808009695259 40.85459009895753 921.1280263506767-48.70264755255894 831.5707886991603-5.022664207976746z" fill="rgba(5, 63, 94, 1)" class="triangle-float2"></path></g><defs><mask id="SvgjsMask1002"><rect width="1440" height="560" fill="#ffffff"></rect></mask><linearGradient x1="84.72%" y1="-39.29%" x2="15.28%" y2="139.29%" gradientUnits="userSpaceOnUse" id="SvgjsLinearGradient1003"><stop stop-color="#0e2a47" offset="0"></stop><stop stop-color="rgba(2, 45, 67, 1)" offset="1"></stop></linearGradient><style>
            @keyframes float1 {
                0%{transform: translate(0, 0)}
                50%{transform: translate(-10px, 0)}
                100%{transform: translate(0, 0)}
            }

            .triangle-float1 {
                animation: float1 5s infinite;
            }

            @keyframes float2 {
                0%{transform: translate(0, 0)}
                50%{transform: translate(-5px, -5px)}
                100%{transform: translate(0, 0)}
            }

            .triangle-float2 {
                animation: float2 4s infinite;
            }

            @keyframes float3 {
                0%{transform: translate(0, 0)}
                50%{transform: translate(0, -10px)}
                100%{transform: translate(0, 0)}
            }

            .triangle-float3 {
                animation: float3 6s infinite;
            }
        </style></defs></svg>

<svg xmlns="http://www.w3.org/2000/svg" width="1440" height="560" preserveAspectRatio="none"><g mask="url(&quot;#SvgjsMask1002&quot;)" fill="none"><path fill="url(#SvgjsLinearGradient1003)" d="M0 0h1440v560H0z"/><path d="m-33.25 43.976 63.73 81.571 81.57-63.73-63.73-81.57z" fill="rgba(5, 63, 94, 1)" class="triangle-float3"/><path d="m155.317 406.454-26.61-52.224-65.031 66.026z" fill="rgba(5, 63, 94, 1)" style="animation:float1 5s infinite"/><path d="M741.08 529.11a156.06 156.06 0 1 0 312.12 0 156.06 156.06 0 1 0-312.12 0zM98.994 595.526c40.287.071 85.905-1.603 106.859-36.012 21.493-35.294 5.599-78.907-15.093-114.676-20.653-35.702-50.522-70.29-91.766-70.05-40.96.238-69.489 35.613-89.937 71.105-20.404 35.417-37.326 78.211-16.269 113.244 20.663 34.377 66.097 36.318 106.206 36.389" fill="rgba(5, 63, 94, 1)" class="triangle-float3"/><path d="M689.849 504.473c17.622.381 36.246-4.813 45.069-20.072 8.831-15.272 3.354-33.614-5.059-49.121-8.94-16.479-21.288-32.966-40.01-33.954-20.083-1.06-38.852 11.428-48.06 29.307-8.55 16.601-3.946 36.242 6.24 51.892 9.204 14.141 24.951 21.584 41.82 21.948" fill="rgba(5, 63, 94, 1)" class="triangle-float2"/><path d="m561.806 415.412-145.857-71.139L344.81 490.13l145.857 71.139z" fill="rgba(5, 63, 94, 1)" class="triangle-float3"/><path d="M779.965 53.699c16.005-.972 24.42-17.548 31.571-31.899 6.155-12.353 10.083-26.345 3.492-38.471-6.854-12.611-20.724-18.987-35.063-19.612-15.678-.683-32.467 3.002-40.786 16.308-8.73 13.964-6.183 31.652 1.793 46.06 8.268 14.934 21.954 28.649 38.993 27.614M746.73 255.74a152.02 152.02 0 1 0 304.04 0 152.02 152.02 0 1 0-304.04 0z" fill="rgba(5, 63, 94, 1)" class="triangle-float2"/><path d="M162.713 102.83 139.756-27.37 32.516 125.787z" fill="rgba(5, 63, 94, 1)" class="triangle-float3"/><path d="M737.654 78.621c17.854.744 33.666-11.482 41.875-27.354 7.595-14.685 5.134-32.252-3.876-46.114-8.212-12.635-22.952-17.488-37.999-18.308-17.098-.932-37.191-.996-45.918 13.736-8.815 14.88.91 32.526 9.681 47.432 8.594 14.606 19.305 29.902 36.237 30.608M875.25 84.535l89.558-43.68-43.68-89.558-89.557 43.68z" fill="rgba(5, 63, 94, 1)" class="triangle-float2"/></g><defs><linearGradient x1="84.72%" y1="-39.29%" x2="15.28%" y2="139.29%" gradientUnits="userSpaceOnUse" id="SvgjsLinearGradient1003"><stop stop-color="#0e2a47" offset="0"/><stop stop-color="rgba(2, 45, 67, 1)" offset="1"/></linearGradient><style>@keyframes float1{0%,to{transform:translate(0,0)}50%{transform:translate(-10px,0)}}@keyframes float2{0%,to{transform:translate(0,0)}50%{transform:translate(-5px,-5px)}}@keyframes float3{0%,to{transform:translate(0,0)}50%{transform:translate(0,-10px)}}.triangle-float2{animation:float2 4s infinite}.triangle-float3{animation:float3 6s infinite}</style><mask id="SvgjsMask1002"><path fill="#fff" d="M0 0h1440v560H0z"/></mask></defs></svg>
